X:1
T:Title
%%score { ( 1 4 ) | ( 2 3 ) }
L:1/8
M:4/4
K:Eb
V:1 treble nm="Grand Piano"
V:4 treble 
V:2 bass 
V:3 bass 
V:1
 z4 z2[Q:1/4=100] [GB]>[FA] | [EG]2 [FA]2 [GB]2 [Ge]2 | [EBd]2 [EAc]2 [EGB]2 [B,GB]2 | %3
 [Ac][GB][FA][EG] [DF]2 [Ac]2 | [GB]4 G2 [B,GB]>[B,FA] | [B,EG]2 [B,FA]2 [EGB]2 [Ge]2 | %6
 [EBd]2 [EAc]2 [EGB]2 G2 | BBBB [DA]2 [DF]2 |[M:3/4] E6 |[M:1/4] [GB]2 | %10
[M:4/4] [GB][GB][_G=A][=GB] [_Ac]2 [GB]2 | [EG]6 z2 | GGFG [FA]2 [EG]2 | z2 B,2 B,2 [FA][FA] | %14
 GGGA [EGB]2 [Ge]2 | [EBd]4 [EAc]2 [Ec]2 | [EB][EB][EB][EB] [DA]2 [DF]2 |[M:3/4] E6 |] %18
V:2
 z4 z2 [E,B,]>[E,B,] | [E,B,]2 [E,B,]2 [E,E]2 B,E | A,2 A,2 E,2 E,2 | %3
 [B,,B,][B,,B,][B,,B,][B,,B,] [B,,B,]2 [B,,B,]2 | z4 E2 E,>E, | E,2 E,2 E,2 B,E | %6
 A,2 A,2 E,2 [E,B,E]2 | [E,G,E][E,G,E][E,G,E][E,G,E] [B,,F,]2 [B,,A,]2 |[M:3/4] [E,G,]6 | %9
[M:1/4] [E,E]2 |[M:4/4] [E,E][E,E][E,E][E,E] [E,E]2 [E,E]2 | [E,B,]2 E,2 E,2 [E,B,E]2 | %12
 [E,B,E][E,B,E][E,B,D][E,B,E] [D,B,]2 [E,B,]2 | [B,,B,]2 B,,2 B,,2 [B,,B,][B,,B,] | %14
 [E,B,E][E,B,E]EF E,2 E,-[E,E] | A,4 A,2 [A,,A,]2 | %16
 [B,,G,][B,,G,][B,,G,][B,,G,] [B,,F,]2 [B,,A,]2 |[M:3/4] [E,G,]6 |] %18
V:3
 x8 | z4 z2 E,2 | x8 | x8 | E,6 z2 | z4 z2 E,2 | x8 | x8 |[M:3/4] x6 |[M:1/4] x2 |[M:4/4] x8 | x8 | %12
 x8 | x8 | z2 [E,B,]2 z2 .B,2 | x8 | x8 |[M:3/4] x6 |] %18
V:4
 x8 | x8 | x8 | x8 | B,6 z2 | x8 | x8 | x8 |[M:3/4] x6 |[M:1/4] x2 |[M:4/4] x8 | z2 B,2 B,2 G2 | %12
 x8 | [DF]6 z2 | x8 | x8 | x8 |[M:3/4] x6 |] %18

